!!!COM: Mozart
!!!OTL: Zwolf Variationen in C uber ein Menuett von Johann Christian Fischer 
!!!Variation: Theme c
!!!OTL: Zwolf Variationen in C uber ein Menuett von Johann Christian Fischer
**function	**harm	**comments	**kern	**kern
*M3/4	*M3/4	*	*staff2	*staff1
*C:	*C:	*	*clefF4	*clefG2
*tb16	*	*	*k[]	*k[]
*	*	*	*M3/4	*M3/4
=-	=-	=-	=-	=-
2.D	2.V	.	8GGL	(2dd
.	.	.	8GJ	.
.	.	.	8GGL	.
.	.	.	8GJ	.
.	.	.	8GGL	16ccLL
.	.	.	.	16b
.	.	.	8GJ	16a
.	.	.	.	16gJJ)
=	=	=	=10	=10
2.D	2.I64	.	8GGL	4cc 4ee
.	.	.	8GJ	.
.	.	.	8GGL	4g 4cc
.	.	.	8GJ	.
.	.	.	8GGL	(16eeLL
.	.	.	.	16cc)
.	.	.	8GJ	(16ee
.	.	.	.	16ccJJ)
=	=	=	=11	=11
2.D	2.V7	.	8GGL	4dd 4ff
.	.	.	8GJ	.
.	.	.	8GGL	4b 4dd
.	.	.	8GJ	.
.	.	.	8GGL	(16ffLL
.	.	.	.	16dd)
.	.	.	8GJ	(16ff
.	.	.	.	16ddJJ)
=	=	=	=12	=12
2.T	2.I	.	4CC. 4C.	(4ee 4gg
.	.	.	.	16ccLL) 16ee
.	.	.	.	(16gg
.	.	.	8r	16aa
.	.	.	.	16ggJJ
.	.	.	4r	16cccLL
.	.	.	.	16gg
.	.	.	.	16aa
.	.	.	.	16ggJJ)
=	=	=	=13	=13
2.T	2.I	.	4CC. 4C.	(4ee 4gg
.	.	.	.	16ccLL) 16ee
.	.	.	.	(16gg
.	.	.	8r	16aa
.	.	.	.	16ggJJ
.	.	.	4r	16cccLL
.	.	.	.	16gg
.	.	.	.	16aa
.	.	.	.	16ggJJ)
=	=	=	=14	=14
4T	4I6	T	8e	(16ggLL
.	.	.	.	16ee
.	.	.	8r	16aa
.	.	.	.	16ggJJ
4T	4V65	D	8B	16ffLL
.	.	.	.	16dd
.	.	.	8r	16gg
.	.	.	.	16ffJJ
4T	4I	T	8c	16eeLL
.	.	.	.	16cc
.	.	.	8r	16ff
.	.	.	.	16eeJJ)
=	=	=	=15	=15
2T	2C64	D	(2G	(16eeLL
.	.	.	.	16dd)
.	.	.	.	16g'
.	.	.	.	16a'JJ
.	.	.	.	16b'LL
.	.	.	.	16cc'
.	.	.	.	16dd'
.	.	.	.	16ee'JJ
4T	4V2	.	4F	16ff'LL
.	.	.	.	16gg'
.	.	.	.	16aa'
.	.	.	.	16bb'JJ
=	=	=	=16	=16
4T	4I6	T	8E)	16ccc'LL
.	.	.	.	16gg'
.	.	.	8r	(16ee
.	.	.	.	16ggJJ)
4T	4vii@7	D	8BB	(16ffLL
.	.	.	.	16aa)
.	.	.	8r	(16dd
.	.	.	.	16ffJJ)
4T	4I	T	8C	(16eeLL
.	.	.	.	16gg)
.	.	.	8r	(16cc
.	.	.	.	16eeJJ)
=	=	=	=17	=17
2.D	2.V	.	4G	(8eeL
.	.	.	.	8ddJ)
.	.	.	4GG	(8ccL
.	.	.	.	8bJ)
.	.	.	4r	(8aL
.	.	.	.	8gJ)
=	=	=	=18	=18
*-	*-	*-	*-	*-
